!!!OTL: Liverpool Girls
!!!ONM: 126.
**kern
*clefG2
*k[b-e-]
*B-:
*M3/4
*MM120
{4B-
=1
(4B-
4d)
4f
=2
4g
4f
8d
8d
=3
(4c
4B-)
4A
=4
4B-
8r}
{8d
8d
8d
=5
4d
4c
4B-
=6
4c
4d
4f
=7
4g
4f
4d
=8
4f
4r}
{4d
=9
4f
4g
4a
=10
4b-
4dd
4cc
=11
4b-
4g
4a
=12
4b-
4r}
{(8b-
8cc)
=13
4dd
4cc
4b-
=14
4.a
8a
4g
=15
4f
4d
4c
=16
4B-
4r}
=||
{8A
8B-
=17
2c
4r
=18
2g
4r
=19
4r
4f
4d
=20
2g}
{4f
=21
4g
4f
4d
=22
(4g
4f)
4c
=23
4d
4B-
4A
=24
2B-}
==
*-
!!!CNT: Folksongs of Maritime Canada
!!!MRD: 1928///-1932///
!!!OCL: Helen Creighton
!!!YOR: Songs and Ballads from Nova Scotia
!!!PPR: J.M. Dent & Sons, Limited
!!!PPP: Toronto, Canada
!!!PDT: 1932///
!!!reprint: Dover Publications, 1992: ISBN 0-486-21703-5
!!!ENC1: Craig Stuart Sapp (music and bibliographic data)                       
!!!ENC2: Marcus Pearce (phrase markings and key designations)                   
!!!ENC3: Darrell Conklin (phrase markings and key designations)   
!!!END: 2002/04/10/
!!!EEV: 2004/06/05
!!!MPN: Mr. Ben Henneberry
!!!PPG: 272
!!!EFL: 128/152
!!!ARE: Canada; Nova Scotia
!!!verses: 7
!!!VTS: 1995793632
